X: 25
T: MISS ANNE SUTHERLAND OF DOLLAR
C: Andrew Rankine
R: jig
B: "The Complete Andrew Rankine Collection of Scottish Country Dance Tunes" p.30
Z: 2017 John Chambers <jc:trillian.mit.edu>
M: 6/8
L: 1/8
K: G
D |:\
"G"GFG ^AB^c | d^cd "G7"BAG | "C"cGc ecg | "G"d3 "E7"dcB |\
"Am"cAB "D7"cBA |[1 "G"dBc "E7"dcB | "A7"e^cd efg | "D"f2e "D7"cAF :|
[2 "G"BGA Bc^c | "Am"d=cA "D7"FDA | "G"G3 "E7"d2^d |]|\
"Am"ecA "D7"FAe | "G"dBG DGd | "D7"cAF DFc |
"G"B3- B2B |\
"D7"cAF DFc | "G"BAG DGB | "A7"A^GA ^cde | "D"d3- d2^d |]|\
"Am"ecA "D7"FAe |
"G"dBG DGd | "D7"cAF DFc | "G"B3 "E7"d3 |\
"Am"cd^d "D7"ecA | "G"Bc^c dBG | "Am"d=cA "D7"FDA | "G"G3- G2 |]
